X: 2
T: Inisheer
R: waltz
M: 3/4
L: 1/8
K: Gmaj
DGA | B3 AB<d | B3 AB<d | E3 cBG | A3DGA | B3 AB<d | B3 AB<d | D3 B A/G/F | G3 :|ABd | e3 fed | B3 ABd | e3 dBd | e3 fgf |e3 fed | B3 ABd | D3 B A/G/F | G3 :|


Tune 211	Setting 28240

